assets/icons/kids/ratings.svg

<svg width="20" height="20" viewBox="0 0 20 20" fill="none" xmlns="http://www.w3.org/2000/svg">
<path d="M7.72245 4.72658C8.73603 2.90902 9.24242 2.00024 10 2.00024C10.7576 2.00024 11.264 2.90902 12.2775 4.72658L12.5399 5.19697C12.8279 5.71376 12.9719 5.97215 13.1959 6.14255C13.4199 6.31294 13.6999 6.37614 14.2599 6.50254L14.7687 6.61774C16.7366 7.06333 17.7198 7.28572 17.9542 8.0385C18.1878 8.79048 17.5174 9.57527 16.1759 11.144L15.8287 11.5496C15.4479 11.9952 15.2567 12.2184 15.1711 12.4936C15.0855 12.7696 15.1143 13.0672 15.1719 13.6616L15.2247 14.2032C15.4271 16.2967 15.5287 17.3431 14.9159 17.8079C14.3031 18.2727 13.3815 17.8487 11.54 17.0007L11.0624 16.7815C10.5392 16.5399 10.2776 16.4199 10 16.4199C9.72241 16.4199 9.46081 16.5399 8.93762 16.7815L8.46084 17.0007C6.61848 17.8487 5.6969 18.2727 5.08492 17.8087C4.47133 17.3431 4.57293 16.2967 4.77532 14.2032L4.82812 13.6624C4.88572 13.0672 4.91452 12.7696 4.82812 12.4944C4.74332 12.2184 4.55213 11.9952 4.17134 11.5504L3.82415 11.144C2.48258 9.57607 1.81219 8.79129 2.04579 8.0385C2.27938 7.28572 3.26416 7.06253 5.23211 6.61774L5.7409 6.50254C6.30009 6.37614 6.57928 6.31294 6.80408 6.14255C7.02887 5.97215 7.17207 5.71376 7.46006 5.19697L7.72245 4.72658Z" fill="#FFC107"/>
<mask id="mask0_15784_112015" style="mask-type:alpha" maskUnits="userSpaceOnUse" x="2" y="2" width="16" height="16">
<path d="M7.72245 4.72658C8.73603 2.90902 9.24242 2.00024 10 2.00024C10.7576 2.00024 11.264 2.90902 12.2775 4.72658L12.5399 5.19697C12.8279 5.71376 12.9719 5.97215 13.1959 6.14255C13.4199 6.31294 13.6999 6.37614 14.2599 6.50254L14.7687 6.61774C16.7366 7.06333 17.7198 7.28572 17.9542 8.0385C18.1878 8.79048 17.5174 9.57527 16.1759 11.144L15.8287 11.5496C15.4479 11.9952 15.2567 12.2184 15.1711 12.4936C15.0855 12.7696 15.1143 13.0672 15.1719 13.6616L15.2247 14.2032C15.4271 16.2967 15.5287 17.3431 14.9159 17.8079C14.3031 18.2727 13.3815 17.8487 11.54 17.0007L11.0624 16.7815C10.5392 16.5399 10.2776 16.4199 10 16.4199C9.72241 16.4199 9.46081 16.5399 8.93762 16.7815L8.46084 17.0007C6.61848 17.8487 5.6969 18.2727 5.08492 17.8087C4.47133 17.3431 4.57293 16.2967 4.77532 14.2032L4.82812 13.6624C4.88572 13.0672 4.91452 12.7696 4.82812 12.4944C4.74332 12.2184 4.55213 11.9952 4.17134 11.5504L3.82415 11.144C2.48258 9.57607 1.81219 8.79129 2.04579 8.0385C2.27938 7.28572 3.26416 7.06253 5.23211 6.61774L5.7409 6.50254C6.30009 6.37614 6.57928 6.31294 6.80408 6.14255C7.02887 5.97215 7.17207 5.71376 7.46006 5.19697L7.72245 4.72658Z" fill="#FFC107"/>
</mask>
<g mask="url(#mask0_15784_112015)">
<circle cx="7.01671" cy="6.5826" r="7.81734" fill="#FDCD3B"/>
</g>
</svg>

<svg xmlns="http://www.w3.org/2000/svg" width="20" height="20" fill="none" viewBox="0 0 20 20"><path fill="#ffc107" d="M7.722 4.727C8.736 2.909 9.242 2 10 2s1.264.909 2.278 2.727l.262.47c.288.517.432.775.656.946s.504.233 1.064.36l.509.115c1.968.445 2.95.668 3.185 1.42s-.437 1.537-1.778 3.106l-.347.406c-.381.445-.572.668-.658.944-.085.276-.057.573 0 1.168l.054.541c.202 2.094.304 3.14-.31 3.605-.612.465-1.533.04-3.375-.807l-.478-.22c-.523-.241-.784-.361-1.062-.361s-.54.12-1.062.361l-.477.22c-1.843.848-2.764 1.272-3.376.808-.614-.466-.512-1.512-.31-3.606l.053-.54c.058-.596.087-.893 0-1.169-.085-.276-.276-.499-.657-.944l-.347-.406C2.483 9.576 1.812 8.791 2.046 8.039c.233-.753 1.218-.976 3.186-1.421l.509-.115c.56-.127.838-.19 1.063-.36s.368-.43.656-.946z"/><mask id="a" width="16" height="16" x="2" y="2" maskUnits="userSpaceOnUse" style="mask-type:alpha"><path fill="#ffc107" d="M7.722 4.727C8.736 2.909 9.242 2 10 2s1.264.909 2.278 2.727l.262.47c.288.517.432.775.656.946s.504.233 1.064.36l.509.115c1.968.445 2.95.668 3.185 1.42s-.437 1.537-1.778 3.106l-.347.406c-.381.445-.572.668-.658.944-.085.276-.057.573 0 1.168l.054.541c.202 2.094.304 3.14-.31 3.605-.612.465-1.533.04-3.375-.807l-.478-.22c-.523-.241-.784-.361-1.062-.361s-.54.12-1.062.361l-.477.22c-1.843.848-2.764 1.272-3.376.808-.614-.466-.512-1.512-.31-3.606l.053-.54c.058-.596.087-.893 0-1.169-.085-.276-.276-.499-.657-.944l-.347-.406C2.483 9.576 1.812 8.791 2.046 8.039c.233-.753 1.218-.976 3.186-1.421l.509-.115c.56-.127.838-.19 1.063-.36s.368-.43.656-.946z"/></mask><g mask="url(#a)"><circle cx="7.017" cy="6.583" r="7.817" fill="#fdcd3b"/></g></svg>
